X: 02
T: ANGUS MacLEOD
C: Andrew Rankine 1960
R: reel
B: "The Complete Andrew Rankine Collection of Scottish Country Dance Tunes" p.5
Z: 2017 John Chambers <jc:trillian.mit.edu>
M: C|
L: 1/8
K: F
c2 |:\
"F"F4 F3G | A2c2 A4 | F4 F3G | A2c2 "Gm"B4 |\
"C7"G4 G3A | B2c2 B4 | e3d c2B2 | A2G2 [1 "F"F2f2 :|[2 "F"F4 |]
|:\
"Bb"f4 f3e | "F"d2c2 A4 | c4 c3d | c2A2 "C7"G4 |\
"F"F4 F3G | A2F2 "Gm"B4 | "C7"e3d c2B2 | A2G2 "F"F4 :|

%%sep 1 1 500

